apps/scalable/google-play-music-desktop-player.svg

<svg xmlns="http://www.w3.org/2000/svg" style="isolation:isolate" width="256" height="256"><defs><filter id="a" width="400%" height="400%" x="-200%" y="-200%" color-interpolation-filters="sRGB" filterUnits="objectBoundingBox"><feGaussianBlur xmlns="http://www.w3.org/2000/svg" in="SourceGraphic" stdDeviation="4.294"/><feOffset xmlns="http://www.w3.org/2000/svg" dy="4" result="pf_100_offsetBlur"/><feFlood xmlns="http://www.w3.org/2000/svg" flood-opacity=".4"/><feComposite xmlns="http://www.w3.org/2000/svg" in2="pf_100_offsetBlur" operator="in" result="pf_100_dropShadow"/><feBlend xmlns="http://www.w3.org/2000/svg" in="SourceGraphic" in2="pf_100_dropShadow"/></filter></defs><g filter="url(#a)"><linearGradient id="b" x1=".499" x2=".5" y1=".002" y2=".997" gradientTransform="matrix(244.648 0 0 228.338 5.68 11.95)" gradientUnits="userSpaceOnUse"><stop offset="0%" stop-color="#f55a34"/><stop offset="100%" stop-color="#f44920"/></linearGradient><path fill="url(#b)" d="M165.689 11.95c74.056 0 84.639 10.557 84.639 84.544v59.251c0 73.986-10.583 84.543-84.639 84.543h-75.37c-74.055 0-84.639-10.557-84.639-84.543V96.494c0-73.987 10.584-84.544 84.639-84.544h75.37z"/></g><g filter="url(#c)"><circle fill="#FEE581" cx="128" cy="127.998" r="82.498" vector-effect="non-scaling-stroke"/><linearGradient id="d" x1=".499" x2=".499" y1="-.005" y2=".997" gradientTransform="matrix(164.995 0 0 163.735 45.502 46.765)" gradientUnits="userSpaceOnUse"><stop offset="0%" stop-opacity=".94" stop-color="#ffd119"/><stop offset="100%" stop-color="#fac718"/></linearGradient><ellipse fill="url(#d)" cx="128" cy="128.632" rx="82.498" ry="81.868" vector-effect="non-scaling-stroke"/><circle fill="#FEE581" cx="128" cy="127.998" r="78.041" vector-effect="non-scaling-stroke"/><linearGradient id="e" x2="0" y1=".5" y2="1.5" gradientTransform="translate(53.865 53.862) scale(148.271)" gradientUnits="userSpaceOnUse"><stop offset="100%" stop-opacity=".94" stop-color="#ffd119"/><stop offset="100%" stop-opacity=".94" stop-color="#ffd119"/></linearGradient><circle fill="url(#e)" cx="128" cy="127.998" r="74.135" vector-effect="non-scaling-stroke"/><circle fill="#FEE581" cx="128" cy="127.998" r="69.525" vector-effect="non-scaling-stroke"/><linearGradient id="f" x2="0" y1=".5" y2="1.5" gradientTransform="translate(62.381 62.378) scale(131.238)" gradientUnits="userSpaceOnUse"><stop offset="100%" stop-opacity=".94" stop-color="#ffd119"/><stop offset="100%" stop-opacity=".94" stop-color="#ffd119"/></linearGradient><circle fill="url(#f)" cx="128" cy="127.998" r="65.619" vector-effect="non-scaling-stroke"/><circle fill="#FEE581" cx="128" cy="127.998" r="60.715" vector-effect="non-scaling-stroke"/><linearGradient id="g" x2="0" y1=".5" y2="1.5" gradientTransform="translate(71.126 71.123) scale(113.749)" gradientUnits="userSpaceOnUse"><stop offset="100%" stop-opacity=".94" stop-color="#ffd119"/><stop offset="100%" stop-opacity=".94" stop-color="#ffd119"/></linearGradient><circle fill="url(#g)" cx="128" cy="127.998" r="56.874" vector-effect="non-scaling-stroke"/><linearGradient id="h" x1=".25" x2=".75" y1=".036" y2=".902" gradientTransform="translate(76.035 76.032) scale(103.931)" gradientUnits="userSpaceOnUse"><stop offset="0%" stop-color="#f61111"/><stop offset="48.272%" stop-color="#ff4f4f"/><stop offset="100%" stop-color="#ff7a55"/></linearGradient><circle fill="url(#h)" cx="128" cy="127.998" r="51.965" vector-effect="non-scaling-stroke"/><g><g fill="#FFF"><path d="M110.557 103.634l44.107-8.992v12.324l-44.107 8.992v-12.324z"/><path d="M110.56 103.63h7.102v45.978h-7.102z"/><path d="M94.566 153.912c-1.268-4.732 2.825-9.946 9.134-11.636 6.309-1.691 12.46.778 13.728 5.51 1.268 4.732-2.825 9.946-9.134 11.636-6.309 1.69-12.46-.779-13.728-5.51zM147.56 96.12h7.102v45.978h-7.102z"/><path d="M131.571 146.401c-1.267-4.732 2.825-9.946 9.134-11.636 6.309-1.691 12.46.778 13.728 5.51 1.268 4.732-2.825 9.946-9.134 11.636-6.308 1.691-12.46-.779-13.728-5.51z"/></g></g><g><linearGradient id="i" x2="0" y1=".5" y2="1.5" gradientTransform="matrix(68.648 0 0 130.361 47.607 75.948)" gradientUnits="userSpaceOnUse"><stop offset="100%" stop-opacity=".94" stop-color="#ffd119"/><stop offset="100%" stop-opacity=".94" stop-color="#ffd119"/></linearGradient><path fill="url(#i)" d="M66.231 75.948l20.126 17.126-5.133 8.372-4.867 11.25-2.124 8.377-.499 7.499.248 6.393 1.502 6.374 5.497 13.122 4.522 8.609 7.126 6.496 10.373 6.752 10.625 3.874 2.628 1.124-5.927 24.994-11.199-2.492-9.272-4.877s-10.374-5.749-10.5-6.374l-7.499-7.499-12.02-14.125-7.229-13.5-4.377-17.625-.625-17.266 2.375-11.997 3.733-13.626 4.499-8.75 3.873-6.001 4.144-6.23z"/><linearGradient id="j" x2="0" y1=".5" y2="1.5" gradientTransform="matrix(68.615 0 0 130.361 139.451 50.456)" gradientUnits="userSpaceOnUse"><stop offset="100%" stop-opacity=".94" stop-color="#ffd119"/><stop offset="100%" stop-opacity=".94" stop-color="#ffd119"/></linearGradient><path fill="url(#j)" d="M189.443 180.817l-20.122-17.126 5.133-8.371 4.844-11.251 2.128-8.376.499-7.499-.252-6.375-1.498-6.374-5.483-13.145-4.498-8.624-7.126-6.5-10.369-6.729-10.625-3.873-2.623-1.13 5.894-24.988 11.223 2.492 9.253 4.876s10.374 5.744 10.5 6.374c.126.63 7.499 7.499 7.499 7.499l11.997 14.126 7.252 13.5 4.372 17.62.625 17.266-2.375 11.997-3.733 13.626-4.517 8.731-3.873 6.001-4.125 6.253z"/></g></g><defs><filter id="c" width="400%" height="400%" x="-200%" y="-200%" color-interpolation-filters="sRGB" filterUnits="objectBoundingBox"><feGaussianBlur xmlns="http://www.w3.org/2000/svg" in="SourceGraphic" stdDeviation="4.294"/><feOffset xmlns="http://www.w3.org/2000/svg" result="pf_100_offsetBlur"/><feFlood xmlns="http://www.w3.org/2000/svg" flood-opacity=".4"/><feComposite xmlns="http://www.w3.org/2000/svg" in2="pf_100_offsetBlur" operator="in" result="pf_100_dropShadow"/><feBlend xmlns="http://www.w3.org/2000/svg" in="SourceGraphic" in2="pf_100_dropShadow"/></filter></defs><path fill="#FFF" d="M249.643 83.58L44.234 236.61c11.562 2.311 26.426 3.019 45.523 3.019h75.37c74.055 0 84.639-10.558 84.639-84.544V95.834c0-4.303-.041-8.37-.123-12.254z" opacity=".1"/><g opacity=".4"><linearGradient id="k" x1=".517" x2=".517" y2="1"><stop offset="0%" stop-color="#fff"/><stop offset="12.5%" stop-opacity=".098" stop-color="#fff"/><stop offset="92.5%" stop-opacity=".098"/><stop offset="100%" stop-opacity=".498"/></linearGradient><path fill="none" stroke="url(#k)" stroke-linecap="round" stroke-linejoin="round" stroke-width="4.077" d="M165.685 11.947c74.055 0 84.639 10.557 84.639 84.544v59.251c0 73.986-10.584 84.543-84.639 84.543h-75.37c-74.055 0-84.639-10.557-84.639-84.543V96.491c0-73.987 10.584-84.544 84.639-84.544h75.37z" vector-effect="non-scaling-stroke"/></g></svg>

<svg xmlns="http://www.w3.org/2000/svg" style="isolation:isolate" width="256" height="256" viewBox="0 0 256 256">
 <defs>
  <filter id="Y9rI29f9UHciVtat592H6YV8iqyymdsv" width="400%" height="400%" x="-200%" y="-200%" color-interpolation-filters="sRGB" filterUnits="objectBoundingBox">
   <feGaussianBlur xmlns="http://www.w3.org/2000/svg" in="SourceGraphic" stdDeviation="4.294"/>
   <feOffset xmlns="http://www.w3.org/2000/svg" dx="0" dy="4" result="pf_100_offsetBlur"/>
   <feFlood xmlns="http://www.w3.org/2000/svg" flood-opacity=".4"/>
   <feComposite xmlns="http://www.w3.org/2000/svg" in2="pf_100_offsetBlur" operator="in" result="pf_100_dropShadow"/>
   <feBlend xmlns="http://www.w3.org/2000/svg" in="SourceGraphic" in2="pf_100_dropShadow" mode="normal"/>
  </filter>
 </defs>
 <g filter="url(#Y9rI29f9UHciVtat592H6YV8iqyymdsv)">
  <linearGradient id="_lgradient_9" x1=".499" x2=".5" y1=".002" y2=".997" gradientTransform="matrix(244.648,0,0,228.338,5.68,11.95)" gradientUnits="userSpaceOnUse">
   <stop offset="0%" style="stop-color:rgb(245,90,52)"/>
   <stop offset="100%" style="stop-color:rgb(244,73,32)"/>
  </linearGradient>
  <path fill="url(#_lgradient_9)" d="M 165.689 11.95 C 239.745 11.95 250.328 22.507 250.328 96.494 L 250.328 155.745 C 250.328 229.731 239.745 240.288 165.689 240.288 L 90.319 240.288 C 16.264 240.288 5.68 229.731 5.68 155.745 L 5.68 96.494 C 5.68 22.507 16.264 11.95 90.319 11.95 L 165.689 11.95 Z"/>
 </g>
 <g filter="url(#NWfT9HDACmpmaMJyn63tPzTNSUGavOek)">
  <g>
   <circle fill="#FEE581" cx="128" cy="127.998" r="82.498" vector-effect="non-scaling-stroke"/>
   <linearGradient id="_lgradient_10" x1=".499" x2=".499" y1="-.005" y2=".997" gradientTransform="matrix(164.995,0,0,163.735,45.502,46.765)" gradientUnits="userSpaceOnUse">
    <stop offset="0%" stop-opacity=".94" style="stop-color:rgb(255,209,25)"/>
    <stop offset="100%" style="stop-color:rgb(250,199,24)"/>
   </linearGradient>
   <ellipse fill="url(#_lgradient_10)" cx="128" cy="128.632" rx="82.498" ry="81.868" vector-effect="non-scaling-stroke"/>
   <circle fill="#FEE581" cx="128" cy="127.998" r="78.041" vector-effect="non-scaling-stroke"/>
   <linearGradient id="_lgradient_11" x1="0" x2="0" y1=".5" y2="1.5" gradientTransform="matrix(148.271,0,0,148.271,53.865,53.862)" gradientUnits="userSpaceOnUse">
    <stop offset="100%" stop-opacity=".94" style="stop-color:rgb(255,209,25)"/>
    <stop offset="100%" stop-opacity=".94" style="stop-color:rgb(255,209,25)"/>
   </linearGradient>
   <circle fill="url(#_lgradient_11)" cx="128" cy="127.998" r="74.135" vector-effect="non-scaling-stroke"/>
   <circle fill="#FEE581" cx="128" cy="127.998" r="69.525" vector-effect="non-scaling-stroke"/>
   <linearGradient id="_lgradient_12" x1="0" x2="0" y1=".5" y2="1.5" gradientTransform="matrix(131.238,0,0,131.238,62.381,62.378)" gradientUnits="userSpaceOnUse">
    <stop offset="100%" stop-opacity=".94" style="stop-color:rgb(255,209,25)"/>
    <stop offset="100%" stop-opacity=".94" style="stop-color:rgb(255,209,25)"/>
   </linearGradient>
   <circle fill="url(#_lgradient_12)" cx="128" cy="127.998" r="65.619" vector-effect="non-scaling-stroke"/>
   <circle fill="#FEE581" cx="128" cy="127.998" r="60.715" vector-effect="non-scaling-stroke"/>
   <linearGradient id="_lgradient_13" x1="0" x2="0" y1=".5" y2="1.5" gradientTransform="matrix(113.749,0,0,113.749,71.126,71.123)" gradientUnits="userSpaceOnUse">
    <stop offset="100%" stop-opacity=".94" style="stop-color:rgb(255,209,25)"/>
    <stop offset="100%" stop-opacity=".94" style="stop-color:rgb(255,209,25)"/>
   </linearGradient>
   <circle fill="url(#_lgradient_13)" cx="128" cy="127.998" r="56.874" vector-effect="non-scaling-stroke"/>
   <linearGradient id="_lgradient_14" x1=".25" x2=".75" y1=".036" y2=".902" gradientTransform="matrix(103.931,0,0,103.931,76.035,76.032)" gradientUnits="userSpaceOnUse">
    <stop offset="0%" style="stop-color:rgb(246,17,17)"/>
    <stop offset="48.272%" style="stop-color:rgb(255,79,79)"/>
    <stop offset="100%" style="stop-color:rgb(255,122,85)"/>
   </linearGradient>
   <circle fill="url(#_lgradient_14)" cx="128" cy="127.998" r="51.965" vector-effect="non-scaling-stroke"/>
  </g>
  <g>
   <g>
    <path fill="#FFFFFF" d="M 110.557 103.634 L 154.664 94.642 L 154.664 106.966 L 110.557 115.958 L 110.557 103.634 Z"/>
    <rect fill="#FFFFFF" width="7.102" height="45.978" x="110.56" y="103.63" transform="matrix(1,0,0,1,0,0)"/>
    <path fill="#FFFFFF" d="M 94.566 153.912 C 93.298 149.18 97.391 143.966 103.7 142.276 C 110.009 140.585 116.16 143.054 117.428 147.786 C 118.696 152.518 114.603 157.732 108.294 159.422 C 101.985 161.112 95.834 158.643 94.566 153.912 Z"/>
    <rect fill="#FFFFFF" width="7.102" height="45.978" x="147.56" y="96.12" transform="matrix(1,0,0,1,0,0)"/>
    <path fill="#FFFFFF" d="M 131.571 146.401 C 130.304 141.669 134.396 136.455 140.705 134.765 C 147.014 133.074 153.165 135.543 154.433 140.275 C 155.701 145.007 151.608 150.221 145.299 151.911 C 138.991 153.602 132.839 151.132 131.571 146.401 Z"/>
   </g>
  </g>
  <g>
   <linearGradient id="_lgradient_15" x1="0" x2="0" y1=".5" y2="1.5" gradientTransform="matrix(68.648,0,0,130.361,47.607,75.948)" gradientUnits="userSpaceOnUse">
    <stop offset="100%" stop-opacity=".94" style="stop-color:rgb(255,209,25)"/>
    <stop offset="100%" stop-opacity=".94" style="stop-color:rgb(255,209,25)"/>
   </linearGradient>
   <path fill="url(#_lgradient_15)" d="M 66.231 75.948 L 86.357 93.074 L 81.224 101.446 L 76.357 112.696 L 74.233 121.073 L 73.734 128.572 L 73.982 134.965 L 75.484 141.339 L 80.981 154.461 L 85.503 163.07 L 92.629 169.566 L 103.002 176.318 L 113.627 180.192 L 116.255 181.316 L 110.328 206.31 L 99.129 203.818 L 89.857 198.941 C 89.857 198.941 79.483 193.192 79.357 192.567 C 79.357 192.567 71.858 185.068 71.858 185.068 L 59.838 170.943 L 52.609 157.443 L 48.232 139.818 L 47.607 122.552 L 49.982 110.555 L 53.715 96.929 L 58.214 88.179 L 62.087 82.178 L 66.231 75.948 Z"/>
   <linearGradient id="_lgradient_16" x1="0" x2="0" y1=".5" y2="1.5" gradientTransform="matrix(68.615,0,0,130.361,139.451,50.456)" gradientUnits="userSpaceOnUse">
    <stop offset="100%" stop-opacity=".94" style="stop-color:rgb(255,209,25)"/>
    <stop offset="100%" stop-opacity=".94" style="stop-color:rgb(255,209,25)"/>
   </linearGradient>
   <path fill="url(#_lgradient_16)" d="M 189.443 180.817 L 169.321 163.691 L 174.454 155.32 L 179.298 144.069 L 181.426 135.693 L 181.925 128.194 L 181.673 121.819 L 180.175 115.445 L 174.692 102.3 L 170.194 93.676 L 163.068 87.176 L 152.699 80.447 L 142.074 76.574 L 139.451 75.444 L 145.345 50.456 L 156.568 52.948 L 165.821 57.824 C 165.821 57.824 176.195 63.568 176.321 64.198 C 176.447 64.828 183.82 71.697 183.82 71.697 L 195.817 85.823 L 203.069 99.323 L 207.441 116.943 L 208.066 134.209 L 205.691 146.206 L 201.958 159.832 L 197.441 168.563 L 193.568 174.564 L 189.443 180.817 Z"/>
  </g>
 </g>
 <defs>
  <filter id="NWfT9HDACmpmaMJyn63tPzTNSUGavOek" width="400%" height="400%" x="-200%" y="-200%" color-interpolation-filters="sRGB" filterUnits="objectBoundingBox">
   <feGaussianBlur xmlns="http://www.w3.org/2000/svg" in="SourceGraphic" stdDeviation="4.294"/>
   <feOffset xmlns="http://www.w3.org/2000/svg" dx="0" dy="0" result="pf_100_offsetBlur"/>
   <feFlood xmlns="http://www.w3.org/2000/svg" flood-opacity=".4"/>
   <feComposite xmlns="http://www.w3.org/2000/svg" in2="pf_100_offsetBlur" operator="in" result="pf_100_dropShadow"/>
   <feBlend xmlns="http://www.w3.org/2000/svg" in="SourceGraphic" in2="pf_100_dropShadow" mode="normal"/>
  </filter>
 </defs>
 <g opacity=".1">
  <path fill="#FFFFFF" d="M 249.643 83.58 L 44.234 236.61 C 55.796 238.921 70.66 239.629 89.757 239.629 L 165.127 239.629 C 239.182 239.629 249.766 229.071 249.766 155.085 L 249.766 95.834 C 249.766 91.531 249.725 87.464 249.643 83.58 L 249.643 83.58 Z"/>
 </g>
 <g opacity=".4">
  <linearGradient id="_lgradient_17" x1=".517" x2=".517" y1="0" y2="1">
   <stop offset="0%" style="stop-color:rgb(255,255,255)"/>
   <stop offset="12.5%" stop-opacity=".098" style="stop-color:rgb(255,255,255)"/>
   <stop offset="92.5%" stop-opacity=".098" style="stop-color:rgb(0,0,0)"/>
   <stop offset="100%" stop-opacity=".498" style="stop-color:rgb(0,0,0)"/>
  </linearGradient>
  <path fill="none" stroke="url(#_lgradient_17)" stroke-linecap="round" stroke-linejoin="round" stroke-width="4.077" d="M 165.685 11.947 C 239.74 11.947 250.324 22.504 250.324 96.491 L 250.324 155.742 C 250.324 229.728 239.74 240.285 165.685 240.285 L 90.315 240.285 C 16.26 240.285 5.676 229.728 5.676 155.742 L 5.676 96.491 C 5.676 22.504 16.26 11.947 90.315 11.947 L 165.685 11.947 Z" vector-effect="non-scaling-stroke"/>
 </g>
</svg>
